X:22
C:Page 11
T:Johnny Cope. MBe.22
S:Matthew Betham MS, Towcett Cumbria, 1815
O:England;Cumbria;Towcett
Z:VMP – Hugh Taylor, 2012
T:Donald, Where’s your Troosers?aka. MBe.22
M:2/4
L:1/8
Q:1/4=100
R:.Reel
N:Well known Scottish song, though this version is quite different to the song’s normal air.
K:Em
G| “Em” EAA G/A/| “Em” BAAA| “G” DGG B/d/| “G” d/B/d/B/ G/A/B/G/|
“Em” EAA G/A/| “D” BAAf| “D” edeg| “Em” BAA:|
|:d| “Em” e>de>g| “Em” e>de>g| “G” d>Bdg| “G” d/B/G/B/ dg|
“Em” e>de>g| “Em” gbge| “D” d>Ag>A| “Em” BAA:|

